X:1
T:Gran Vals
T:Gran Vals
T:F. Tarrega 1852 - 1909
T:Chistabo
T:Chistabo
T:Chistabo
T:Chistabo
C:F. Tarrega
Z:Chistabo
%%score { ( 1 3 4 ) | ( 2 5 6 ) }
L:1/8
Q:1/4=120
M:3/4
K:A
V:1 treble-8 nm="Guitar" snm="Guit."
V:3 treble-8 
V:4 treble-8 
V:2 tab stafflines=6 strings=E2,A2,D3,G3,B3,E4 nostems 
V:5 tab stafflines=6 strings=E2,A2,D3,G3,B3,E4 nostems 
V:6 tab stafflines=6 strings=E2,A2,D3,G3,B3,E4 nostems 
V:1
!mf!!-(!{/c} !-)!!1!e2 || e6 | !4!f6 | f6 | !3!g6 | g4 !4!a2 | a4 !4!g2 |{/g} f6 |"_marcato" z6 | %9
 f6 | g4!-(!{/c'} !-)!a2 | c'6 | b6 | (!4!e'!2!d') !3!f2 !1!g2 | (c'b) d2 e2 | (ba) c2 e2 | %16
"_harm" z2 z2!-(!{/c} !-)!e2 |"_un poco cresc." e6 | f6 | f6 | g6 | g6 | a6 |"_a tempo" !4!e'6 | %24
 !1!d'6 | f6 | !4!d'6 | c'6 | e6 | f6 | b6 |"^a tempo" [cea]6- | [cea]2 (e'"^tenuto"d') (f'e') |: %33
[K:E]{!1!c'!3!d'} !1!c'2 b2 b2 | E,!0!B (!0!eg) (eg) |{ab} a2 [Bd]2 [Bd]2 | %36
 z2 (!4!f'!2!d') (!3!e'!1!c') | e'2 !3!d'2 d'2 | z2 (!4!d'b) (!3!c'a) |{c'd'} c'2 b2 b2 | %40
 z2 (e'd') (f'e') |{c'd'} c'2 b2 b2 | E,E GB !-(!!4!e!-)!!4!b | b2 [FAc]2 [FAc]2 | %44
"_marcato" A,!1!F !3!G!4!A !1!B!1!c | %45
{cd} c2 e2"_a piacere"!-(!{!2!!1!!4![Acc']} !3!!1!!-)!!4![cee']2 | !-(!!4!d'2 !-)!c'2 d2 |1 %47
 [GBe]6- | [GBe]2 (e'd') (f'e') :|2 [GBe]6- | [GBe]2 z4 |:[K:B] z2 [df]2 [df]2 | z2 [df]2 [df]2 | %53
 z2 [cf]2 [cf]2 | c6 | z2 [df]2 [df]2 | z2 [df]2 [df]2 | %57
{AB} A2"^rit.  _  _  _  _  _  _  _  _  _" ^^G2 A2 | e6 | d6 | d6 | d6 | a4 g2 | %63
"^_  _  _  _  _  _  _" [df]2 !1!!-(![DB]2{/!-)![Ge]} !2![Ge]2 | d4 [Ac]2 |1"^a tempo" [DFB]6- | %66
 [DFB]2 z4 :|2 [DFB]6- | [DFB]2 z2!-(!{/g} !-)!b2 |:[K:E] b6 | b6 | b6 | z2 d'e' ^e'f' | %73
 (e'd') !2![Ba]2 [Ba]2 | z2 (fd) (!4!e!1!c) | (!4!e!3!d) !1!G2 G2 | z4!-(!{/g} !-)!b2 | b6 | b6 | %79
 b6 | z2 d'e' ^e'f' | (e'd') a2 a2 | (c'b) [Ad]2 [Ad]2 |1 [GBe]6- | [GBe]2 z2!-(!{/g} !-)!b2 :|2 %85
 [GBe]6- | [GBe]2 z2!-(!{/c} !-)!e2 ||[K:A] e6 | f6 | f6 | g6 | g4 a2 | a4 g2 |!-(!{/g} !-)!f6 | %94
"_marcato" z6 | f6 | g4!-(!{/a} !-)!c'2 | c'6 | b6 | (!4!e'!2!d') !3!f2 !1!g2 | (c'b) d2 e2 | %101
 (ba) c2 e2 |"_harm" z4!-(!{/c} !-)!e2 |"_un poco cresc." e6 | f6 | f6 | g6 | g6 | a6 | %109
"_a tempo" e'6 | d'6 | f6 | d'6 | c'6 | e6 | f6 | b6 | [cea]6- | [cea]2 z4 |] %119
V:2
!-(!{/!2!C} !-)!!2!E2 || !2!E6 | !1!F6 | !1!F6 | !1!G6 | !1!G4 !1!A2 | !1!A4 !1!G2 |{/!1!G} !1!F6 | %8
 x6 | !1!F6 | !1!G4!-(!{/!1!c} !-)!!1!A2 | !1!c6 | !1!B6 | (!1!e !1!d) !3!F2 !2!G2 | %14
 (!1!c !1!B) !3!D2 !3!E2 | (!1!B !1!A) !3!C2 !2!E2 | x2 x2!-(!{/!2!C} !-)!!2!E2 | !2!E6 | !1!F6 | %19
 !1!F6 | !1!G6 | !1!G6 | !1!A6 | !1!e6 | !1!d6 | !2!F6 | !1!d6 | !1!c6 | !2!E6 | !2!F6 | !1!B6 | %31
 [!3!C!2!E!1!A]6- | [!3!C!2!E!1!A]2 (!1!e !1!d) (!1!f !1!e) |:[K:E]{!1!c!1!d} !1!c2 !1!B2 !1!B2 | %34
 !6!E,, !2!B, (!1!E !1!G) (!1!E !1!G) |{!1!A!1!B} !1!A2 [!3!B,!2!D]2 [!3!B,!2!D]2 | %36
 x2 (!1!f !1!d) (!1!e !1!c) | !1!e2 !1!d2 !1!d2 | x2 (!1!d !1!B) (!1!c !2!A) | %39
{!1!c!1!d} !1!c2 !1!B2 !1!B2 | x2 (!1!e !1!d) (!1!f !1!e) |{!1!c!1!d} !1!c2 !1!B2 !1!B2 | %42
 !6!E,, !5!E, !4!G, !3!B, !-(!!2!E !-)!!2!B | !2!B2 [!4!F,!3!A,!2!C]2 [!4!F,!3!A,!2!C]2 | %44
 !5!A,, !4!F, !4!G, !4!A, !3!B, !3!C | %45
{!3!C!3!D} !3!C2 !1!E2!-(!{[!4!A,!3!C!1!c]} !-)![!4!C!3!E!1!e]2 | !-(!!1!d2 !-)!!1!c2 !3!D2 |1 %47
 [!3!G,!2!B,!1!E]6- | [!3!G,!2!B,!1!E]2 (!1!e !1!d) (!1!f !1!e) :|2 [!3!G,!2!B,!1!E]6- | %50
 [!3!G,!2!B,!1!E]2 x4 |:[K:B] x2 [!2!D!1!F]2 [!2!D!1!F]2 | x2 [!2!D!1!F]2 [!2!D!1!F]2 | %53
 x2 [!2!C!1!F]2 [!2!C!1!F]2 | !2!C6 | x2 [!2!D!1!F]2 [!2!D!1!F]2 | x2 [!2!D!1!F]2 [!2!D!1!F]2 | %57
{!3!A,!3!B,} !3!A,2 !3!^^G,2 !3!A,2 | !1!E6 | !2!D6 | !2!D6 | !2!D6 | !1!A4 !1!G2 | %63
 [!2!D!1!F]2 !-(![!4!D,!2!B,]2{/!-)![!4!G,!2!E]} [!4!G,!2!E]2 | !2!D4 [!3!A,!2!C]2 |1 %65
 [!5!D,!4!F,!3!B,]6- | [!5!D,!4!F,!3!B,]2 x4 :|2 [!5!D,!4!F,!3!B,]6- | %68
 [!5!D,!4!F,!3!B,]2 x2!-(!{/!1!G} !-)!!1!B2 |:[K:E] !1!B6 | !1!B6 | !1!B6 | %72
 x2 !1!d !1!e !1!^e !1!f | (!1!e !1!d) [!4!B,!2!A]2 [!4!B,!2!A]2 | x2 (!2!F !2!D) (!2!E !2!C) | %75
 (!2!E !2!D) !3!G,2 !3!G,2 | x4!-(!{/!1!G} !-)!!1!B2 | !1!B6 | !1!B6 | !1!B6 | %80
 x2 !1!d !1!e !1!^e !1!f | (!1!e !1!d) !2!A2 !1!x2 | (!1!c !1!B) [!4!A,!3!D]2 [!4!A,!3!D]2 |1 %83
 [!3!G,!2!B,!1!E]6- | [!3!G,!2!B,!1!E]2 x2!-(!{/!1!G} !-)!!1!B2 :|2 [!3!G,!2!B,!1!E]6- | %86
 [!3!G,!2!B,!1!E]2 x2!-(!{/!2!C} !-)!!2!E2 ||[K:A] !2!E6 | !2!F6 | !1!F6 | !1!G6 | !1!G4 !1!A2 | %92
 !1!A4 !1!G2 |!-(!{/!1!G} !-)!!1!F6 | x6 | !1!F6 | !1!G4!-(!{/!1!A} !-)!!1!c2 | !1!c6 | !1!B6 | %99
 (!1!e !1!d) !3!F2 !2!G2 | (!1!c !1!B) !3!D2 !3!E2 | (!1!B !1!A) !3!C2 !2!E2 | %102
 x4!-(!{/!2!C} !-)!!2!E2 | !2!E6 | !2!F6 | !2!F6 | !1!G6 | !1!G6 | !1!A6 | !1!e6 | !1!d6 | !2!F6 | %112
 !1!d6 | !1!c6 | !2!E6 | !2!F6 | !1!B6 | [!3!C!2!E!1!A]6- | [!3!C!2!E!1!A]2 x4 |] %119
V:3
 x2 || A,6 | E,6 | A,6 | E,6 | A,6 | E,6 | B,6 | !1!B,2 !2!C2 !4!D2 | E,6 | B,6 | E,6 | E6 | E,6 | %14
 E,6 | A,6 | A,6 | A,6 | E,6 | A,6 | E,6 | A,6 | A,6 | D6 | D6 | B,6 | D6 | E6 | E,6 | E,6 | E6 | %31
 A,2 !3!E2 !4!C2 | A,2 z4 |:[K:E] E,6 | E,4 z2 | F6 |!-(!{/F} !-)!!1!B4 z2 | F6 | B,6 | E,6 | E,6 | %41
 E,6 | E,4 z2 | A,6 | A,4 z2 | B,4 z2 | !2!!1![Bd]2 [Ac]2 [B,FA]2 |1 E2 B,2 G,2 | E,4 z2 :|2 %49
 E2 B,2 G,2 | E,2 z4 |:[K:B] B,6 | F,6 | C6 | F,6 | B,6 | F,6 | C6 | F,6 | B,6 | A,6 | G,6 | E,6 | %63
 [F,F]2 z4 | F,4 F,2 |1 B,6 | B,2 z4 :|2 B,2 F2 D2 | B,2 z4 |:[K:E] e6 | B6 | f6 | !0!B6 | F6 | %74
 B,6 | E,4 E2 |!-(!{/!fermata!!4!G,} !-)!!fermata!B,4 z2 | e6 | B6 | f6 | !0!B6 | F6 | B,6 |1 %83
 E2 B,2 G,2 | E,2 z4 :|2 E2 B,2 G,2 | E,2 z4 ||[K:A] A,6 | E,6 | A,6 | E,6 | A,6 | E,6 | B,6 | %94
 !1!B,2 !3!C2 !4!D2 | E,6 | B,6 | E,6 | E6 | E,4 z2 | E,6 | A,6 | A,6 | A,6 | E,6 | A,6 | E,6 | %107
 A,6 | A,6 | D6 | D6 | B,6 | D6 | E6 | E,6 | E,6 | E6 | A,2 !3!E2 !4!C2 | A,2 z4 |] %119
V:4
 x2 || z2 [Ac]2 [Ac]2 | z2 [Ac]2 [Ac]2 | z2 [Ac]2 [Ac]2 | z2 [Ac]2 [Ac]2 | z2 [Ac]2 [Ac]2 | %6
 z2 [Ac]2 [Ac]2 | z2 !3!!2![Bd]2 [Bd]2 | z6 | z2 [Bd]2 [Bd]2 | z2 [Bd]2 [Bd]2 | z2 [dg]2 [dg]2 | %12
 z2 [dg]2 [dg]2 | x6 | x6 | x6 | x6 | z2 [Ac]2 [Ac]2 | z2 [Ac]2 [Ac]2 | z2 [Ac]2 [Ac]2 | %20
 z2 [Ac]2 [Ac]2 | z2 [Ac]2 [Ac]2 | z2 [Ac]2 [Ac]2 | z2 [fb]2 [fb]2 | z2 [fb]2 [fb]2 | %25
 z2 [Bd]2 [Bd]2 | z2 [=fa]2 [fa]2 | z2 [ea]2 [ea]2 | %28
 z2 [Ac]2"^rit. _  _  _  _  _  _  _  _  _  _  _  _  _  _  _  _  _  _" [Ac]2 | z2 [B^d]2 [Bd]2 | %30
 z2 !3![dg]2 [dg]2 | x6 | x6 |:[K:E] z2 g2 [eg]2 | x6 | x6 | x6 | z2 !2![Ba]2 [Ba]2 | x6 | %39
 z2 g2 [eg]2 | x6 | z2 g2 [eg]2 | x6 | x6 | x6 | x2 [GB]2 x2 | x6 |1 x6 | x6 :|2 x6 | x6 |: %51
[K:B] F6 | B6 | A6 | z2 G2 F2 | F6 | B6 | x6 | e2 g2 f2 | z2 [FB]2 [FB]2 | %60
 z2"_cresc." [^^Fc]2 [Fc]2 | z2 [GB]2 [GB]2 | z2"^rit.  _  _  _" [ce]2 [ce]2 | x6 | F2 ^E2 =E2 |1 %65
 x2 F2 D2 | x6 :|2 x6 | x6 |:[K:E] x2 g2 g2 | x2 g2 g2 | x2 a2 a2 | x6 | x6 | x6 | x6 | x6 | %77
 x2 g2 g2 | x2 g2 g2 | x2 a2 a2 | x6 | z2 [Ba]2 [Ba]2 | z2 x4 |1 x6 | x6 :|2 x6 | x6 || %87
[K:A] z2 [Ac]2 [Ac]2 | z2 [Ac]2 [Ac]2 | z2 [Ac]2 [Ac]2 | z2 [Ac]2 [Ac]2 | z2 [Ac]2 [Ac]2 | %92
 z2 [Ac]2 [Ac]2 | z2 [Bd]2 [Bd]2 | x6 | z2 [Bd]2 [Bd]2 | z2 [Bd]2 [Bd]2 | z2 [dg]2 [dg]2 | %98
 z2 [dg]2 [dg]2 | x6 | x6 | x6 | x6 | z2 [Ac]2 [Ac]2 | z2 [Ac]2 [Ac]2 | z2 [Ac]2 [Ac]2 | %106
 z2 [Ac]2 [Ac]2 | z2 [Ac]2 [Ac]2 | z2 [Ac]2 [Ac]2 | z2 [fb]2 [fb]2 | z2 [fb]2 [fb]2 | %111
 z2 [Bd]2 [Bd]2 | z2 [=fa]2 [fa]2 | z2 [ea]2 [ea]2 | z2 [Ac]2 [Ac]2 | z2 [B^d]2 [Bd]2 | %116
 z2 [dg]2 [dg]2 | x6 | x6 |] %119
V:5
 x2 || !5!A,,6 | !6!E,,6 | !5!A,,6 | !6!E,,6 | !5!A,,6 | !6!E,,6 | !5!B,,6 | %8
 !5!B,,2 !5!C,2 !5!D,2 | !6!E,,6 | !5!B,,6 | !6!E,,6 | !4!E,6 | !6!E,,6 | !6!E,,6 | !5!A,,6 | %16
 !5!A,,6 | !5!A,,6 | !6!E,,6 | !5!A,,6 | !6!E,,6 | !5!A,,6 | !5!A,,6 | !4!D,6 | !4!D,6 | !6!B,,6 | %26
 !4!D,6 | !5!E,6 | !6!E,,6 | !6!E,,6 | !5!E,6 | !6!A,,2 !5!E,2 !6!C,2 | !5!A,,2 x4 |: %33
[K:E] !6!E,,6 | !6!E,,4 x2 | !4!F,6 |!-(!{/!4!F,} !-)!!4!B,4 x2 | !5!F,6 | !6!B,,6 | !6!E,,6 | %40
 !6!E,,6 | !6!E,,6 | !6!E,,4 x2 | !5!A,,6 | !6!x4 x2 | !6!B,,4 x2 | %46
 [!4!B,!3!D]2 [!4!A,!3!C]2 [!6!B,,!5!F,!4!A,]2 |1 !4!E,2 !5!B,,2 !6!G,,2 | !6!E,,4 x2 :|2 %49
 !4!E,2 !5!B,,2 !6!G,,2 | !6!E,,2 x4 |:[K:B] !5!B,,6 | !6!F,,6 | !5!C,6 | !6!F,,6 | !5!B,,6 | %56
 !6!F,,6 | !5!C,6 | !6!F,,6 | !5!B,,6 | !6!A,,6 | !6!G,,6 | !6!E,,6 | [!6!F,,!4!F,]2 x4 | %64
 !6!F,,4 !6!F,,2 |1 !6!B,,6 | !6!B,,2 x4 :|2 !6!B,,2 !4!F,2 !5!D,2 | !6!B,,2 x4 |:[K:E] !3!E6 | %70
 !4!B,6 | !3!F6 | !2!B,6 | !5!F,6 | !5!B,,6 | !6!E,,4 !4!E,2 | %76
!-(!{/!fermata!!6!G,,} !-)!!fermata!!6!B,,4 x2 | !2!E6 | !3!B,6 | !2!F6 | !2!B,6 | !5!F,6 | %82
 !6!B,,6 |1 !4!E,2 !5!B,,2 !6!G,,2 | !6!E,,2 x4 :|2 !4!E,2 !5!B,,2 !6!G,,2 | !6!E,,2 x4 || %87
[K:A] !5!A,,6 | !6!E,,6 | !5!A,,6 | !6!E,,6 | !5!A,,6 | !6!E,,6 | !5!B,,6 | !5!B,,2 !5!C,2 !4!D,2 | %95
 !6!E,,6 | !5!B,,6 | !6!E,,6 | !5!E,6 | !6!E,,4 x2 | !6!E,,6 | !5!A,,6 | !5!A,,6 | !5!A,,6 | %104
 !6!E,,6 | !5!A,,6 | !6!E,,6 | !5!A,,6 | !5!A,,6 | !4!D,6 | !4!D,6 | !6!B,,6 | !4!D,6 | !5!E,6 | %114
 !6!E,,6 | !6!E,,6 | !5!E,6 | !6!A,,2 !5!E,2 !6!C,2 | !6!A,,2 x4 |] %119
V:6
 x2 || x2 [!4!A,!3!C]2 [!4!A,!3!C]2 | x2 [!3!A,!2!C]2 [!3!A,!2!C]2 | x2 [!3!A,!2!C]2 [!3!A,!2!C]2 | %4
 x2 [!3!A,!2!C]2 [!3!A,!2!C]2 | x2 [!3!A,!2!C]2 [!3!A,!2!C]2 | x2 [!3!A,!2!C]2 [!3!A,!2!C]2 | %7
 x2 [!3!B,!2!D]2 [!3!B,!2!D]2 | x6 | x2 [!3!B,!2!D]2 [!3!B,!2!D]2 | x2 [!3!B,!2!D]2 [!3!B,!2!D]2 | %11
 x2 [!3!D!2!G]2 [!3!D!2!G]2 | x2 [!3!D!2!G]2 [!3!D!2!G]2 | x6 | x6 | x6 | x6 | %17
 x2 [!4!A,!3!C]2 [!4!A,!3!C]2 | x2 [!3!A,!2!C]2 [!3!A,!2!C]2 | x2 [!3!A,!2!C]2 [!3!A,!2!C]2 | %20
 x2 [!3!A,!2!C]2 [!3!A,!2!C]2 | x2 [!3!A,!2!C]2 [!3!A,!2!C]2 | x2 [!3!A,!2!C]2 [!3!A,!2!C]2 | %23
 x2 [!3!F!2!B]2 [!3!F!2!B]2 | x2 [!3!F!2!B]2 [!3!F!2!B]2 | x2 [!4!B,!3!D]2 [!4!B,!3!D]2 | %26
 x2 [!3!=F!2!A]2 [!3!F!2!A]2 | x2 [!3!E!2!A]2 [!3!E!2!A]2 | x2 [!4!A,!3!C]2 [!4!A,!3!C]2 | %29
 x2 [!4!B,!3!^D]2 [!4!B,!3!D]2 | x2 [!3!D!2!G]2 [!3!D!2!G]2 | x6 | x6 |: %33
[K:E] x2 !2!G2 [!3!E!2!G]2 | x6 | x6 | x6 | x2 [!4!B,!2!A]2 [!4!B,!2!A]2 | x6 | %39
 x2 !2!G2 [!3!E!2!G]2 | x6 | x2 !2!G2 [!3!E!2!G]2 | x6 | x6 | x6 | x2 [!4!G,!2!B,]2 x2 | x6 |1 x6 | %48
 x6 :|2 x6 | x6 |:[K:B] !4!F,6 | !3!B,6 | !3!A,6 | x2 !3!G,2 !4!F,2 | !4!F,6 | !3!B,6 | x6 | %58
 !2!E2 !1!G2 !1!F2 | x2 [!4!F,!3!B,]2 [!4!F,!3!B,]2 | x2 [!4!^^F,!3!C]2 [!4!F,!3!C]2 | %61
 x2 [!4!G,!3!B,]2 [!4!G,!3!B,]2 | x2 [!3!C!2!E]2 [!3!C!2!E]2 | x6 | !4!F,2 !4!^E,2 !4!=E,2 |1 %65
 x2 !4!F,2 !5!D,2 | x6 :|2 x6 | x6 |:[K:E] x2 !2!G2 !2!G2 | x2 !2!G2 !2!G2 | x2 !2!A2 !2!A2 | x6 | %73
 x6 | x6 | x6 | x6 | x2 !1!G2 !1!G2 | x2 !1!G2 !1!G2 | x2 !1!A2 !1!A2 | x6 | %81
 x2 !4!B,2 [!4!B,!2!A]2 | x2 x4 |1 x6 | x6 :|2 x6 | x6 ||[K:A] x2 [!4!A,!3!C]2 [!4!A,!3!C]2 | %88
 x2 [!4!A,!3!C]2 [!4!A,!3!C]2 | x2 [!3!A,!2!C]2 [!3!A,!2!C]2 | x2 [!3!A,!2!C]2 [!3!A,!2!C]2 | %91
 x2 [!3!A,!2!C]2 [!3!A,!2!C]2 | x2 [!3!A,!2!C]2 [!3!A,!2!C]2 | x2 [!3!B,!2!D]2 [!3!B,!2!D]2 | x6 | %95
 x2 [!3!B,!2!D]2 [!3!B,!2!D]2 | x2 [!3!B,!2!D]2 [!4!B,!3!D]2 | x2 [!3!D!2!G]2 [!3!D!2!G]2 | %98
 x2 [!3!D!2!G]2 [!3!D!2!G]2 | x6 | x6 | x6 | x6 | x2 [!4!A,!3!C]2 [!4!A,!3!C]2 | %104
 x2 [!4!A,!3!C]2 [!4!A,!3!C]2 | x2 [!4!A,!3!C]2 [!4!A,!3!C]2 | x2 [!3!A,!2!C]2 [!3!A,!2!C]2 | %107
 x2 [!3!A,!2!C]2 [!3!A,!2!C]2 | x2 [!3!A,!2!C]2 [!3!A,!2!C]2 | x2 [!3!F!2!B]2 [!3!F!2!B]2 | %110
 x2 [!3!F!2!B]2 [!3!F!2!B]2 | x2 [!4!B,!3!D]2 [!4!B,!3!D]2 | x2 [!3!=F!2!A]2 [!3!F!2!A]2 | %113
 x2 [!3!E!2!A]2 [!3!E!2!A]2 | x2 [!4!A,!3!C]2 [!4!A,!3!C]2 | x2 [!4!B,!3!^D]2 [!4!B,!3!D]2 | %116
 x2 [!3!D!2!G]2 [!3!D!2!G]2 | x6 | x6 |] %119

